static/assets/images/icons/telegram.svg

<svg width="256" height="256" viewBox="0 0 256 256" fill="none" xmlns="http://www.w3.org/2000/svg">
<path d="M216.546 44.0568L26.0661 117.89C18.4009 121.328 15.8083 128.214 24.2134 131.951L73.0797 147.56L191.232 74.1622C197.684 69.5544 204.288 70.7831 198.605 75.852L97.1278 168.207L93.9402 207.292C96.8926 213.327 102.299 213.355 105.747 210.355L133.822 183.653L181.905 219.845C193.073 226.49 199.15 222.202 201.553 210.021L233.091 59.9118C236.365 44.9185 230.781 38.3122 216.546 44.0568Z" fill="black"/>
</svg>

<svg xmlns="http://www.w3.org/2000/svg" viewBox="0 0 256 256"><path d="M216.546 44.057 26.066 117.89c-7.665 3.438-10.258 10.324-1.853 14.061L73.08 147.56l118.152-73.398c6.452-4.608 13.056-3.379 7.373 1.69L97.128 168.207l-3.188 39.085c2.953 6.035 8.359 6.063 11.807 3.063l28.075-26.702 48.083 36.192c11.168 6.645 17.245 2.357 19.648-9.824l31.538-150.11c3.274-14.992-2.31-21.599-16.545-15.854"/></svg>
